svg/google-chrome.svg

<svg xmlns="http://www.w3.org/2000/svg" xml:space="preserve" viewBox="0 0 512 512"><circle cx="256" cy="255.9" r="128" style="fill:#fff"/><path d="M34.3 384C105 506.4 261.6 548.3 384 477.7S548.3 250.4 477.7 128 250.4-36.3 128 34.3C5.6 105-36.3 261.6 34.3 384m332.5-192c35.3 61.2 14.4 139.5-46.8 174.8S180.5 381.2 145.2 320 130.8 180.5 192 145.2c61.2-35.4 139.5-14.4 174.8 46.8" style="fill:none"/><linearGradient id="a" x1="34.355" x2="477.629" y1="354.005" y2="354.005" gradientTransform="matrix(1 0 0 -1 0 514)" gradientUnits="userSpaceOnUse"><stop offset="0" style="stop-color:#d93025"/><stop offset="1" style="stop-color:#ea4335"/></linearGradient><path d="M256 128h221.6C407 5.6 250.5-36.3 128.1 34.3 89.2 56.8 56.8 89.1 34.4 128l110.8 192h.1c-35.4-61.1-14.6-139.3 46.5-174.7 19.4-11.4 41.6-17.3 64.2-17.3" style="fill:url(#a)"/><circle cx="256" cy="256" r="101.3" style="fill:#1a73e8"/><linearGradient id="b" x1="221.057" x2="442.694" y1="5.455" y2="389.341" gradientTransform="matrix(1 0 0 -1 0 514)" gradientUnits="userSpaceOnUse"><stop offset="0" style="stop-color:#fcc934"/><stop offset="1" style="stop-color:#fbbc04"/></linearGradient><path d="M366.8 320 256 512c141.3 0 255.9-114.5 255.9-255.9 0-45-11.8-89.1-34.3-128H256v.1c70.6-.1 127.9 57 128.1 127.6 0 22.5-6 44.7-17.3 64.2" style="fill:url(#b)"/><linearGradient id="c" x1="283.689" x2="62.052" y1="18.014" y2="401.901" gradientTransform="matrix(1 0 0 -1 0 514)" gradientUnits="userSpaceOnUse"><stop offset="0" style="stop-color:#1e8e3e"/><stop offset="1" style="stop-color:#34a853"/></linearGradient><path d="M145.2 320 34.4 128.1C-36.3 250.5 5.6 407 128 477.7c38.9 22.4 83.1 34.3 128 34.3l110.8-192-.1-.1c-35.2 61.2-113.3 82.3-174.5 47.1-19.5-11.2-35.8-27.4-47-47" style="fill:url(#c)"/></svg>

<?xml version="1.0" encoding="utf-8"?>
<!-- Generator: Adobe Illustrator 27.7.0, SVG Export Plug-In . SVG Version: 6.00 Build 0)  -->
<svg version="1.1" id="Layer_1" xmlns="http://www.w3.org/2000/svg" xmlns:xlink="http://www.w3.org/1999/xlink" x="0px" y="0px"
	 viewBox="0 0 512 512" style="enable-background:new 0 0 512 512;" xml:space="preserve">
<style type="text/css">
	.st0{fill:#FFFFFF;}
	.st1{fill:none;}
	.st2{fill:url(#SVGID_1_);}
	.st3{fill:#1A73E8;}
	.st4{fill:url(#SVGID_00000152952015267636013330000014753683330039219892_);}
	.st5{fill:url(#SVGID_00000061452727069046664360000003114617642410319003_);}
</style>
<g>
	<circle class="st0" cx="256" cy="255.9" r="128"/>
	<path class="st1" d="M34.3,384C105,506.4,261.6,548.3,384,477.7S548.3,250.4,477.7,128S250.4-36.3,128,34.3c0,0,0,0,0,0
		C5.6,105-36.3,261.6,34.3,384z M366.8,192c35.3,61.2,14.4,139.5-46.8,174.8S180.5,381.2,145.2,320S130.8,180.5,192,145.2
		c0,0,0,0,0,0C253.2,109.8,331.5,130.8,366.8,192z"/>
	
		<linearGradient id="SVGID_1_" gradientUnits="userSpaceOnUse" x1="34.355" y1="354.0052" x2="477.6288" y2="354.0052" gradientTransform="matrix(1 0 0 -1 0 514)">
		<stop  offset="0" style="stop-color:#D93025"/>
		<stop  offset="1" style="stop-color:#EA4335"/>
	</linearGradient>
	<path class="st2" d="M256,128h221.6C407,5.6,250.5-36.3,128.1,34.3c-38.9,22.5-71.3,54.8-93.7,93.7L145.2,320l0.1,0
		c-35.4-61.1-14.6-139.3,46.5-174.7C211.2,133.9,233.4,128,256,128z"/>
	<circle class="st3" cx="256" cy="256" r="101.3"/>
	
		<linearGradient id="SVGID_00000143577918212089935590000013996816353334065300_" gradientUnits="userSpaceOnUse" x1="221.0567" y1="5.4551" x2="442.6938" y2="389.3411" gradientTransform="matrix(1 0 0 -1 0 514)">
		<stop  offset="0" style="stop-color:#FCC934"/>
		<stop  offset="1" style="stop-color:#FBBC04"/>
	</linearGradient>
	<path style="fill:url(#SVGID_00000143577918212089935590000013996816353334065300_);" d="M366.8,320L256,512
		c141.3,0,255.9-114.5,255.9-255.9c0-45-11.8-89.1-34.3-128H256l0,0.1c70.6-0.1,127.9,57,128.1,127.6
		C384.1,278.3,378.1,300.5,366.8,320z"/>
	
		<linearGradient id="SVGID_00000114758880384835680950000005053325445221791675_" gradientUnits="userSpaceOnUse" x1="283.6892" y1="18.0138" x2="62.052" y2="401.9009" gradientTransform="matrix(1 0 0 -1 0 514)">
		<stop  offset="0" style="stop-color:#1E8E3E"/>
		<stop  offset="1" style="stop-color:#34A853"/>
	</linearGradient>
	<path style="fill:url(#SVGID_00000114758880384835680950000005053325445221791675_);" d="M145.2,320L34.4,128.1
		C-36.3,250.5,5.6,407,128,477.7C166.9,500.1,211.1,512,256,512L366.8,320l-0.1-0.1c-35.2,61.2-113.3,82.3-174.5,47.1
		C172.7,355.8,156.4,339.6,145.2,320z"/>
</g>
</svg>
